public/img/logo.svg

<svg width="376" height="93" viewBox="0 0 376 93" fill="none" xmlns="http://www.w3.org/2000/svg">
<path d="M42.1664 44.9161C42.1664 38.6045 38.6684 31 24.8284 31H5.13297C3.87825 31 0 29.6693 0 66.3986C0 94.3067 2.2433 92.8619 4.10638 92.8619H12.7374C13.4978 92.8619 15.3229 93.2421 15.3229 91.9874C15.3229 91.4551 12.5853 81.2652 12.5853 75.6379C12.5853 71.4555 18.0224 68.4137 20.2277 68.4137C24.5242 68.4137 30.4937 83.5085 30.4937 91.9114C30.4937 93.09 32.813 92.8619 34.1438 92.8619H42.5467C44.1056 92.8619 44.4097 92.7098 44.4097 91.9114C44.4097 74.3452 31.026 64.6115 31.026 62.5203C31.026 60.4291 42.1664 56.817 42.1664 44.9161ZM14.3343 59.6306C12.091 59.6306 12.015 56.6649 12.015 55.106C11.9389 42.2546 14.9046 39.7831 21.6726 39.7831C25.7029 39.7831 30.0754 41.4941 30.0754 46.1708C30.1135 53.0148 16.8818 59.6306 14.3343 59.6306ZM84.0667 78.4516C82.2797 78.4516 77.7551 83.3564 70.3788 83.3564C64.1432 83.3564 60.9873 79.0599 60.9873 73.0904C60.9873 65.7142 66.5005 62.9766 70.3027 62.9766C73.1924 62.9766 76.0441 64.4594 76.7665 64.4594C77.641 64.4594 81.8234 52.3304 81.8234 52.2544C81.8234 50.9996 79.352 50.6955 78.4775 50.6955C72.2419 50.6955 66.9568 54.1935 64.5614 54.1935C62.4702 54.1935 62.166 51.5319 62.166 49.935C62.166 42.7869 67.6032 39.7451 72.7362 39.7451C80.0364 39.7451 82.2417 43.2431 83.5344 43.2431C84.485 43.2431 89.2757 32.8251 89.2757 32.2168C89.2757 30.7339 86.6142 30.962 85.7017 30.962H56.3867C54.2194 30.962 50.1511 65.3339 50.1511 75.2957C50.5313 90.3905 49.3146 93.014 53.2689 92.8619H87.4127C88.2872 92.8619 90.1502 93.1661 90.1502 91.7593C90.1502 91.0368 85.1694 78.4516 84.0667 78.4516ZM172.658 78.4516C170.871 78.4516 166.346 83.3564 158.97 83.3564C152.735 83.3564 149.579 79.0599 149.579 73.0904C149.579 65.7142 155.092 62.9766 158.894 62.9766C161.784 62.9766 164.635 64.4594 165.358 64.4594C166.232 64.4594 170.415 52.3304 170.415 52.2544C170.415 50.9996 167.943 50.6955 167.069 50.6955C160.833 50.6955 155.548 54.1935 153.153 54.1935C151.062 54.1935 150.757 51.5319 150.757 49.935C150.757 42.7869 156.195 39.7451 161.327 39.7451C168.628 39.7451 170.833 43.2431 172.126 43.2431C173.076 43.2431 177.867 32.8251 177.867 32.2168C177.867 30.7339 175.206 30.962 174.293 30.962H144.978C142.811 30.962 138.742 65.3339 138.742 75.2957C139.123 90.3905 137.906 93.014 141.86 92.8619H176.004C176.879 92.8619 178.742 93.1661 178.742 91.7593C178.78 91.0368 173.799 78.4516 172.658 78.4516ZM212.429 31H189.578C188.323 31 184.445 29.6693 184.445 66.3986C184.445 94.3067 186.688 92.8999 188.551 92.8999H198.437C198.969 92.8999 200.68 93.1281 200.68 92.2155C200.68 91.7593 198.095 82.71 198.095 76.4364C198.095 67.0449 227.182 64.1553 227.182 44.2317C227.144 39.8592 224.634 31 212.429 31ZM198.779 61.1135C196.612 61.1135 196.46 59.4785 196.46 57.6915C196.384 40.5816 200.756 39.7451 206.117 39.7451C210.566 39.7451 215.053 41.4561 215.053 46.5891C215.091 51.9882 202.657 61.1135 198.779 61.1135ZM256.877 31C247.029 31 237.181 33.6236 236.459 35.0304C235.356 37.0836 233.379 46.1328 233.379 48.3761C233.379 50.4293 233.759 50.1251 234.406 50.1251C235.661 50.1251 244.748 41.7223 249.957 41.7223C251.782 41.7223 251.402 43.053 251.402 45.2203C251.402 47.9199 248.208 58.2999 248.208 74.5353C248.208 95.7136 251.402 92.7859 252.809 92.7859H260.451C261.401 92.7859 264.025 93.1661 264.025 91.5311C264.025 90.2004 259.995 81.037 259.995 62.2542C259.995 55.5243 260.717 41.6082 265.166 41.6082C270.413 41.6082 273.416 47.6537 274.633 47.6537C275.432 47.6537 279.006 40.7337 279.006 37.5018C279.044 34.1179 268.626 31 256.877 31ZM362.616 62.5203C362.616 60.4291 373.757 56.779 373.757 44.8781C373.757 38.5664 370.259 30.962 356.419 30.962H336.723C335.468 30.962 331.59 29.6313 331.59 66.3605C331.59 94.2687 333.833 92.8239 335.697 92.8239H344.328C345.088 92.8239 346.913 93.2041 346.913 91.9494C346.913 91.4171 344.175 81.2272 344.175 75.5999C344.175 71.4175 349.613 68.3757 351.818 68.3757C356.114 68.3757 362.084 83.4705 362.084 91.8733C362.084 93.052 364.403 92.8239 365.734 92.8239H374.137C375.696 92.8239 376 92.6718 376 91.8733C376.038 74.3452 362.616 64.6115 362.616 62.5203ZM345.962 59.6306C343.719 59.6306 343.643 56.6649 343.643 55.106C343.567 42.2546 346.533 39.7831 353.301 39.7831C357.331 39.7831 361.704 41.4941 361.704 46.1708C361.742 53.0148 348.51 59.6306 345.962 59.6306ZM300.64 16.5897C300.754 16.0954 300.488 15.6011 299.994 15.4871C299.5 15.373 299.005 15.6391 298.891 16.1334C298.283 18.4528 299.994 22.293 300.222 22.7112C300.336 22.9774 300.564 23.1295 300.83 23.2055C301.02 23.2435 301.249 23.2435 301.439 23.1675C301.895 22.9394 302.085 22.4071 301.895 21.9508C301.211 20.544 300.298 17.8444 300.64 16.5897ZM323.073 6.43781C322.541 6.28572 321.933 6.20968 321.362 6.17165C319.993 3.39605 317.522 1.19077 314.29 0.354282C311.096 -0.482202 307.826 0.202194 305.279 1.98923C304.747 1.72308 304.176 1.53297 303.644 1.38088C298.283 -0.025938 292.808 3.20594 291.401 8.56704C290.45 12.2172 291.629 16.0954 294.443 18.6049L290.945 31.9126C290.755 32.7491 290.793 33.5855 291.173 34.346C282.96 41.4561 277.485 56.1326 277.485 69.7065C277.485 82.3298 283.264 92.9379 298.017 92.9379H305.317C320.069 92.9379 325.849 82.3298 325.849 69.7065C325.849 59.6306 322.845 48.9464 317.94 41.228C318.549 40.7337 319.005 40.0873 319.195 39.2889L322.693 25.9431C326.343 25.1447 329.271 22.369 330.221 18.6809C331.628 13.3198 328.434 7.84462 323.073 6.43781ZM303.454 80.0485H299.69C292.123 80.0485 289.158 74.6874 289.158 68.2616C289.158 58.7561 294.557 48.11 301.553 48.11C308.549 48.11 313.948 58.7561 313.948 68.2616C313.986 74.6874 311.058 80.0485 303.454 80.0485ZM317.446 38.7946C317.332 39.2888 316.99 39.7071 316.571 39.9352C316.153 40.2014 315.621 40.2774 315.127 40.1634L294.1 34.6502C293.606 34.5361 293.188 34.1939 292.922 33.7757C292.846 33.6236 292.77 33.4715 292.732 33.3194C292.656 33.0152 292.656 32.635 292.732 32.3308L293.644 28.8708L299.804 30.4677L309.766 33.0532L318.32 35.2965L317.446 38.7946ZM328.472 18.2246C327.636 21.3424 325.05 23.7378 321.819 24.2321C321.78 24.2321 321.742 24.2701 321.666 24.2701C321.552 24.3082 321.438 24.3842 321.324 24.4603C321.21 24.5363 321.134 24.6504 321.096 24.7644C321.058 24.8025 321.058 24.8405 321.058 24.9165L318.815 33.5855L294.138 27.1218L296.42 18.4908C296.42 18.4528 296.458 18.3767 296.458 18.3387C296.458 18.1866 296.458 18.0726 296.42 17.9205C296.382 17.8064 296.306 17.6923 296.23 17.6163C296.192 17.5783 296.154 17.5402 296.116 17.5022C293.53 15.4871 292.427 12.1411 293.264 8.98529C294.405 4.61275 298.891 1.98923 303.264 3.12989C303.454 3.16791 303.606 3.24396 303.796 3.32C302.503 4.65077 301.515 6.28572 301.02 8.18682C300.906 8.68111 301.173 9.1754 301.667 9.28946C302.161 9.40353 302.655 9.09935 302.769 8.64309C304.062 3.77627 309.043 0.848569 313.91 2.14132C318.777 3.39605 321.704 8.41495 320.412 13.2438C320.298 13.738 320.602 14.2323 321.058 14.3464C321.552 14.4605 322.047 14.1563 322.161 13.7C322.655 11.7989 322.617 9.85979 322.123 8.07276C322.313 8.11078 322.503 8.1488 322.655 8.18682C326.99 9.32748 329.613 13.8141 328.472 18.2246ZM319.385 20.544C318.891 20.4299 318.397 20.6961 318.282 21.1904C317.94 22.4451 315.849 24.3842 314.594 25.2967C314.176 25.6009 314.1 26.1712 314.404 26.5515C314.518 26.7416 314.708 26.8556 314.898 26.8937C315.165 26.9697 315.431 26.9317 315.659 26.7416C316.039 26.4754 319.423 23.966 320.031 21.6466C320.184 21.1523 319.879 20.6581 319.385 20.544ZM309.689 17.9965C309.195 17.8824 308.701 18.1486 308.587 18.6429L307.18 23.966C307.066 24.4603 307.332 24.9545 307.826 25.0686C308.321 25.1827 308.815 24.9165 308.929 24.4222L310.298 19.1372C310.488 18.6429 310.184 18.1486 309.689 17.9965ZM129.389 82.8241C129.199 82.4058 129.009 81.9496 128.819 81.5694C128.591 81.0751 128.362 80.6188 128.134 80.2006C128.058 80.0485 127.944 79.8964 127.868 79.7443C127.792 79.5922 127.716 79.4781 127.64 79.3641C127.602 79.288 127.564 79.212 127.526 79.174C127.45 79.0599 127.374 78.9839 127.336 78.8698C127.184 78.6797 127.108 78.4896 126.842 78.4516C126.613 78.4135 126.385 78.4896 126.157 78.5656C125.967 78.6417 125.815 78.7177 125.663 78.7937C125.625 78.7937 125.625 78.8318 125.587 78.8318C123.572 79.7443 121.366 80.0485 119.161 80.0485C118.743 80.0485 118.287 80.0485 117.83 80.0105C116.233 79.9344 114.56 79.8203 112.925 79.5162C112.925 79.5162 112.925 79.5162 112.887 79.5162C107.602 78.2234 104.713 74.6113 103.686 70.0487C103.572 69.5164 103.458 68.9841 103.382 68.4137C103.344 67.9955 103.306 67.5772 103.268 67.159C103.23 66.7027 103.23 66.2085 103.23 65.7142C103.268 56.8931 107.526 47.3495 113.8 43.3952C115.245 42.4827 116.804 41.8363 118.439 41.6082C118.933 41.5322 119.427 41.4941 119.921 41.4941C121.823 41.4941 123.61 42.0264 125.321 42.939C125.397 42.977 125.473 43.015 125.549 43.0911C125.739 43.2051 125.929 43.2812 126.157 43.2431H126.195C126.347 43.2051 126.461 43.1671 126.575 43.053C126.613 43.015 126.651 42.977 126.689 42.939C126.842 42.7869 126.956 42.5968 127.07 42.4067C127.526 41.6082 127.982 40.8478 128.438 40.0493C128.857 39.2508 129.275 38.4524 129.693 37.6159C129.959 37.0836 130.225 36.5132 130.454 35.9809C130.606 35.6768 130.758 35.3726 130.872 35.0684C131.518 33.5855 132.013 32.4449 132.013 32.2548C132.013 32.2168 132.013 32.2168 132.013 32.1787C132.013 31.9886 131.936 31.8365 131.86 31.6844C131.86 31.6464 131.822 31.6084 131.784 31.6084C131.252 30.962 129.845 30.962 128.933 30.962C128.743 30.962 128.552 30.962 128.438 30.962H128.134C127.944 30.962 127.754 30.962 127.564 30.962C125.625 31 123.686 30.962 121.747 30.962H118.971C115.625 31.0381 112.279 31.3422 109.161 32.5589C103.192 34.8403 98.6672 40.0493 95.7395 45.6005C95.6254 45.8286 95.4733 46.0948 95.3593 46.3229C95.3212 46.399 95.2832 46.475 95.2452 46.513C95.0931 46.8552 94.941 47.1974 94.7889 47.5396C94.6368 47.9199 94.4848 48.3001 94.3327 48.6803C94.2186 48.9845 94.1045 49.2886 93.9905 49.6308C93.8764 49.897 93.8004 50.2012 93.6863 50.4673C91.8232 55.7904 90.8346 61.4177 90.5305 67.0069C90.3023 70.9232 90.4164 74.8395 91.405 78.6417C91.7852 80.0865 92.3175 81.4933 93.0019 82.8241C94.1045 84.9533 95.5874 86.8924 97.4505 88.3753C100.378 90.6946 104.104 91.7973 107.792 92.3296C109.656 92.5957 111.519 92.7478 113.382 92.8239C113.496 92.8239 113.572 92.8239 113.686 92.8239H130.187C130.872 92.8239 132.127 93.014 132.659 92.4437C132.697 92.3676 132.735 92.3296 132.773 92.2916C132.811 92.2155 132.849 92.1395 132.887 92.0254C132.925 91.9494 132.925 91.8353 132.925 91.7593C132.925 91.7212 132.925 91.6832 132.925 91.6452C132.849 91.1889 131.974 88.7935 130.872 86.17C130.416 85.1054 129.883 83.9267 129.389 82.8241Z" fill="#234cad"/>
</svg>

<svg width="376" height="93" fill="none" xmlns="http://www.w3.org/2000/svg"><path d="M42.166 44.916C42.166 38.605 38.668 31 24.828 31H5.133C3.878 31 0 29.67 0 66.399c0 27.908 2.243 26.463 4.106 26.463h8.631c.76 0 2.586.38 2.586-.875 0-.532-2.738-10.722-2.738-16.35 0-4.181 5.437-7.223 7.643-7.223 4.296 0 10.266 15.094 10.266 23.497 0 1.179 2.319.95 3.65.95h8.403c1.559 0 1.863-.151 1.863-.95 0-17.566-13.384-27.3-13.384-29.39 0-2.092 11.14-5.704 11.14-17.605zM14.334 59.631c-2.243 0-2.319-2.966-2.319-4.525-.076-12.851 2.89-15.323 9.658-15.323 4.03 0 8.402 1.711 8.402 6.388.038 6.844-13.193 13.46-15.74 13.46zm69.733 18.82c-1.787 0-6.312 4.905-13.688 4.905-6.236 0-9.392-4.296-9.392-10.266 0-7.376 5.514-10.113 9.316-10.113 2.89 0 5.741 1.482 6.463 1.482.875 0 5.057-12.129 5.057-12.205 0-1.254-2.471-1.558-3.345-1.558-6.236 0-11.521 3.498-13.917 3.498-2.09 0-2.395-2.662-2.395-4.259 0-7.148 5.437-10.19 10.57-10.19 7.3 0 9.506 3.498 10.798 3.498.951 0 5.742-10.418 5.742-11.026 0-1.483-2.662-1.255-3.574-1.255H56.387c-2.168 0-6.236 34.372-6.236 44.334.38 15.094-.836 17.718 3.118 17.566h34.144c.874 0 2.737.304 2.737-1.103 0-.722-4.98-13.307-6.083-13.307zm88.591 0c-1.787 0-6.312 4.905-13.688 4.905-6.235 0-9.391-4.296-9.391-10.266 0-7.376 5.513-10.113 9.315-10.113 2.89 0 5.741 1.482 6.464 1.482.874 0 5.057-12.129 5.057-12.205 0-1.254-2.472-1.558-3.346-1.558-6.236 0-11.521 3.498-13.916 3.498-2.091 0-2.396-2.662-2.396-4.259 0-7.148 5.438-10.19 10.57-10.19 7.301 0 9.506 3.498 10.799 3.498.95 0 5.741-10.418 5.741-11.026 0-1.483-2.661-1.255-3.574-1.255h-29.315c-2.167 0-6.236 34.372-6.236 44.334.381 15.094-.836 17.718 3.118 17.566h34.144c.875 0 2.738.304 2.738-1.103.038-.722-4.943-13.307-6.084-13.307zM212.429 31h-22.851c-1.255 0-5.133-1.33-5.133 35.399 0 27.908 2.243 26.5 4.106 26.5h9.886c.532 0 2.243.23 2.243-.683 0-.457-2.585-9.506-2.585-15.78 0-9.391 29.087-12.28 29.087-32.204C227.144 39.859 224.634 31 212.429 31zm-13.65 30.114c-2.167 0-2.319-1.636-2.319-3.422-.076-17.11 4.296-17.947 9.657-17.947 4.449 0 8.936 1.711 8.936 6.844.038 5.4-12.396 14.525-16.274 14.525zM256.877 31c-9.848 0-19.696 2.624-20.418 4.03-1.103 2.054-3.08 11.103-3.08 13.346 0 2.053.38 1.75 1.027 1.75 1.255 0 10.342-8.404 15.551-8.404 1.825 0 1.445 1.331 1.445 3.498 0 2.7-3.194 13.08-3.194 29.315 0 21.179 3.194 18.25 4.601 18.25h7.642c.95 0 3.574.381 3.574-1.254 0-1.33-4.03-10.494-4.03-29.277 0-6.73.722-20.646 5.171-20.646 5.247 0 8.25 6.046 9.467 6.046.799 0 4.373-6.92 4.373-10.152.038-3.384-10.38-6.502-22.129-6.502zm105.739 31.52c0-2.09 11.141-5.741 11.141-17.642 0-6.312-3.498-13.916-17.338-13.916h-19.696c-1.255 0-5.133-1.33-5.133 35.398 0 27.909 2.243 26.464 4.107 26.464h8.631c.76 0 2.585.38 2.585-.875 0-.532-2.738-10.722-2.738-16.35 0-4.181 5.438-7.223 7.643-7.223 4.296 0 10.266 15.094 10.266 23.497 0 1.179 2.319.95 3.65.95h8.403c1.559 0 1.863-.151 1.863-.95.038-17.528-13.384-27.261-13.384-29.353zm-16.654-2.89c-2.243 0-2.319-2.965-2.319-4.524-.076-12.851 2.89-15.323 9.658-15.323 4.03 0 8.403 1.711 8.403 6.388.038 6.844-13.194 13.46-15.742 13.46zM300.64 16.59c.114-.495-.152-.989-.646-1.103-.494-.114-.989.152-1.103.646-.608 2.32 1.103 6.16 1.331 6.578.114.266.342.419.608.495.19.038.419.038.609-.038a.95.95 0 00.456-1.217c-.684-1.407-1.597-4.107-1.255-5.361zm22.433-10.152c-.532-.152-1.14-.228-1.711-.266-1.369-2.776-3.84-4.981-7.072-5.818a10.87 10.87 0 00-9.011 1.635c-.532-.266-1.103-.456-1.635-.608-5.361-1.407-10.836 1.825-12.243 7.186a10.06 10.06 0 003.042 10.038l-3.498 13.308c-.19.836-.152 1.673.228 2.433-8.213 7.11-13.688 21.787-13.688 35.36 0 12.624 5.779 23.232 20.532 23.232h7.3c14.752 0 20.532-10.608 20.532-23.231 0-10.076-3.004-20.76-7.909-28.479.609-.494 1.065-1.14 1.255-1.94l3.498-13.345a9.964 9.964 0 007.528-7.262c1.407-5.361-1.787-10.836-7.148-12.243zm-19.619 73.61h-3.764c-7.567 0-10.532-5.36-10.532-11.786 0-9.506 5.399-20.152 12.395-20.152 6.996 0 12.395 10.646 12.395 20.152.038 6.425-2.89 11.787-10.494 11.787zm13.992-41.253a1.78 1.78 0 01-.875 1.14c-.418.266-.95.342-1.444.228L294.1 34.65c-.494-.114-.912-.456-1.178-.874a2.327 2.327 0 01-.19-.457 2.172 2.172 0 010-.988l.912-3.46 6.16 1.597 9.962 2.585 8.554 2.244-.874 3.498zm11.026-20.57c-.836 3.117-3.422 5.513-6.653 6.007-.039 0-.077.038-.153.038a1.541 1.541 0 00-.342.19.591.591 0 00-.228.304c-.038.038-.038.076-.038.152l-2.243 8.67-24.677-6.464 2.282-8.631c0-.038.038-.114.038-.152 0-.152 0-.266-.038-.418a.827.827 0 00-.19-.305l-.114-.114a8.13 8.13 0 01-2.852-8.517c1.141-4.372 5.627-6.996 10-5.855.19.038.342.114.532.19-1.293 1.33-2.281 2.966-2.776 4.867-.114.494.153.988.647 1.102.494.115.988-.19 1.102-.646 1.293-4.867 6.274-7.794 11.141-6.502 4.867 1.255 7.794 6.274 6.502 11.103-.114.494.19.988.646 1.102.494.114.989-.19 1.103-.646a10.86 10.86 0 00-.038-5.627c.19.038.38.076.532.114 4.335 1.14 6.958 5.627 5.817 10.038zm-9.087 2.319c-.494-.114-.988.152-1.103.646-.342 1.255-2.433 3.194-3.688 4.107a.876.876 0 00-.19 1.255c.114.19.304.304.494.342a.798.798 0 00.761-.152c.38-.267 3.764-2.776 4.372-5.095a.866.866 0 00-.646-1.103zm-9.696-2.547c-.494-.115-.988.152-1.102.646l-1.407 5.323c-.114.494.152.988.646 1.103.495.114.989-.152 1.103-.647l1.369-5.285c.19-.494-.114-.988-.609-1.14zm-180.3 64.827c-.19-.418-.38-.874-.57-1.255-.228-.494-.457-.95-.685-1.368-.076-.152-.19-.305-.266-.457a3.337 3.337 0 00-.228-.38.83.83 0 00-.114-.19c-.076-.114-.152-.19-.19-.304-.152-.19-.228-.38-.494-.418-.229-.038-.457.038-.685.114a6.22 6.22 0 00-.494.228c-.038 0-.038.038-.076.038-2.015.912-4.221 1.217-6.426 1.217-.418 0-.874 0-1.331-.039-1.597-.076-3.27-.19-4.905-.494h-.038c-5.285-1.293-8.174-4.905-9.201-9.467a20.803 20.803 0 01-.304-1.635l-.114-1.255c-.038-.456-.038-.95-.038-1.445.038-8.82 4.296-18.364 10.57-22.319 1.445-.912 3.004-1.559 4.639-1.787a9.733 9.733 0 011.482-.114c1.902 0 3.689.532 5.4 1.445a.793.793 0 01.228.152c.19.114.38.19.608.152h.038c.152-.038.266-.076.38-.19l.114-.114c.153-.152.267-.342.381-.532.456-.799.912-1.56 1.368-2.358.419-.798.837-1.597 1.255-2.433.266-.532.532-1.103.761-1.635.152-.304.304-.608.418-.913.646-1.482 1.141-2.623 1.141-2.813v-.076c0-.19-.077-.343-.153-.495a.082.082 0 00-.076-.076c-.532-.646-1.939-.646-2.851-.646H127.564c-1.939.038-3.878 0-5.817 0h-2.776c-3.346.076-6.692.38-9.81 1.597-5.969 2.281-10.494 7.49-13.421 13.041-.115.229-.267.495-.38.723-.039.076-.077.152-.115.19l-.456 1.027-.456 1.14c-.114.304-.228.609-.343.95-.114.267-.19.571-.304.837-1.863 5.323-2.851 10.95-3.156 16.54-.228 3.916-.114 7.832.875 11.635.38 1.445.912 2.851 1.597 4.182 1.103 2.13 2.585 4.068 4.449 5.551 2.927 2.32 6.653 3.422 10.341 3.955 1.864.266 3.727.418 5.59.494h16.805c.685 0 1.94.19 2.472-.38.038-.076.076-.114.114-.152.038-.076.076-.153.114-.267.038-.076.038-.19.038-.266v-.114c-.076-.456-.951-2.852-2.053-5.475-.456-1.065-.989-2.243-1.483-3.346z" fill="#234cad"/></svg>
